packages/katcn/src/icons/svg/closedFolder-solid.svg

<svg width="24" height="25" viewBox="0 0 24 25" fill="none" xmlns="http://www.w3.org/2000/svg">
<path d="M12.8629 5.98809L11.2386 4.38809C10.5279 3.68809 9.61421 3.28809 8.70051 3.28809H4.74112C3.21827 3.28809 2 4.48809 2 5.98809V18.4881C2 20.0881 3.21827 21.2881 4.74112 21.2881H19.2589C20.7817 21.2881 22 20.0881 22 18.5881V8.78809C22 7.28809 20.7817 6.08809 19.2589 6.08809H12.8629V5.98809Z" fill="black"/>
<path d="M11.8 9.9881C9.60001 9.9881 7.70001 11.7881 7.70001 14.0881C7.70001 16.2881 9.50001 18.1881 11.8 18.1881C14 18.1881 15.9 16.3881 15.9 14.0881C15.9 11.7881 14.1 9.9881 11.8 9.9881ZM11.8 11.5881C12.1 11.5881 12.4 11.6881 12.6 11.7881L9.80001 15.2881C9.60001 14.8881 9.40001 14.4881 9.40001 13.9881C9.40001 12.6881 10.5 11.5881 11.8 11.5881ZM11.8 16.4881C11.5 16.4881 11.2 16.3881 11 16.2881L13.9 12.6881C14.1 13.0881 14.3 13.4881 14.3 13.9881C14.3 15.3881 13.2 16.4881 11.8 16.4881Z" fill="white"/>
</svg>

<svg xmlns="http://www.w3.org/2000/svg" fill="none" viewBox="0 0 24 25"><path fill="#000" d="m12.863 5.988-1.624-1.6c-.711-.7-1.625-1.1-2.538-1.1H4.74c-1.522 0-2.74 1.2-2.74 2.7v12.5c0 1.6 1.218 2.8 2.741 2.8H19.26c1.523 0 2.741-1.2 2.741-2.7v-9.8c0-1.5-1.218-2.7-2.741-2.7h-6.396z"/><path fill="#fff" d="M11.8 9.988c-2.2 0-4.1 1.8-4.1 4.1 0 2.2 1.8 4.1 4.1 4.1 2.2 0 4.1-1.8 4.1-4.1s-1.8-4.1-4.1-4.1m0 1.6c.3 0 .6.1.8.2l-2.8 3.5c-.2-.4-.4-.8-.4-1.3 0-1.3 1.1-2.4 2.4-2.4m0 4.9c-.3 0-.6-.1-.8-.2l2.9-3.6c.2.4.4.8.4 1.3 0 1.4-1.1 2.5-2.5 2.5"/></svg>
